X:1
T:[ID 2-73a]
T:[ID 2-73a]
T:Bezeichnung standardisiert: Schottisch Schottisch
T:Urheber unbekannt Datum in der hier transkribierten schriftlichen Quelle: 1775
C:Urheber unbekannt
C:Datum in der hier transkribierten schriftlichen Quelle: 1775
L:1/8
M:3/8
K:G
V:1 treble 
V:1
 B2 B | BAG | FGA | A/F/G/A/G | B2 B | BAG | FGA | G2 G :: BAB | B2 B | BAB | c2 c | BAB | BAG | %14
 CB,A, | B,2 B, :| %16

